X:1
T:Londonderry Air
R:Slow Air
Z:Transcribed 11 February 2018 by Stephen Beitzel
C:Trad.
M:4/4
L:1/8
K:E
f4- fB [|: {e}Bc {AeA}d2- dc {AeA}d>g | {afg}fd {ace}c{A}B {a}B2- B{ABA}B | {a}de {afg}f2- fg {afg}f>d | {a}B{e}d {ace}c4- c{A}B |
{e}Bc {AeA}d2- d{a}c {AeA}d>g | {afg}fd {ace}c{A}B {a}B2- B{ABA}B | {a}Bc {AeA}d2- de {a}d>c | {a}Bc {A}B4- Bf |
{a}ga {ba}b2- ba {b}a>g | {afg}fg {a}fd {A}B2- Bf | {a}ga {ba}b2- ba {b}a>g | {afg}fd {a}c4-cf |
|1 {a}f{B}f {ade}d2- dc {a}c>b | gb fd {A}B2- B{ABA}B | {a}Bc {AeA}d2- de {a}d>c | {a}Bc {A}B4- B2 :]
|2 {a}f{B}f {ade}d2- dc {a}c>b | gb fd {A}B2- B{ABA}B | {a}Bc {AeA}dg {a}fd {a}cB | {a}cd {A}B4-B2 |]

